X: 5549
T: Burren, The
R: reel
M: 4/4
K: Dmajor
|:~a3b af~f2|afAd ~f3g|af~f2 dB~B2|BAAF EFDf|
a2ab af~f2|afAd ~f3g|af~f2 dB~B2|Adfe d4:|
|:~f3d BAFb|af~f2 ~a3b|gBfB edBc|dBAF EFD2|
a3b af~f2|afAd ~f3g|af~f2 dB~B2|Adfe d4:|
|:~a3b af~f2|afAd ~f3g|af~f2 db~b2|baaf efdf|
a2ab af~f2|afAd ~f3g|af~f2 dB~B2|Adfe d4:|

